!!!OTL: Gruene Reben auf hohen Bergen, Ei, da waechst der beste Wein
!!!ARE: Europa, Mitteleuropa, Lothringen, Halsdorf ( Kr. Diedenhofen )
!!!SCT: D0044
!!!YEM: Copyright 1995, estate of Helmut Schaffrath.
**kern
*ICvox
*Ivox
!! Mixed meters:  3/4; 2/4
*M3/4
*k[f#]
*G:
{8.d
16g
=1
8g
8d
8d
8d
8g
8a
=2
*M2/4
8b
8a
4g}
=3
{8.b
16cc
=4
4dd
8cc
8b
12g
12a
12b
=5
4a
4r}
=6
{4g
8a
8b
=7
8.b
16b
8.b
16dd
12dd
12cc
12b
=8
12b
12a
12b
4a}
=9
{8.b
16a
=10
4g
8.g
16a
12g
12f#
12e
=11
8.d
16a
4a}
=12
{8.b
16a
=13
*M3/4
8g
8a
8b
8a
8.g
16f#
=14
4g
4r}
==
!!!AGN: Liebes - Lied
!! Inzipit = Variante zum Lied
!!!ONB: ESAC (Essen Associative Code) Database: DVA
!!!AMT: irregular
!!!AIN: vox
!!!EED: Helmut Schaffrath
!!!EEV: 1.0
*-
